src/assets/ui/arrow_down_red.svg

<svg height="169" viewBox="0 0 115 169" width="115" xmlns="http://www.w3.org/2000/svg" xmlns:xlink="http://www.w3.org/1999/xlink"><mask id="a" fill="#fff"><path d="m-2 112.034483 17.7-17.6896554 29.5 29.4827584v-123.827586h23.6v123.827586l29.5-29.4827584 17.7 17.6896554-59 58.965517z" fill="#fff" fill-rule="evenodd"/></mask><path d="m-30.9285634 66.9285634 102.7489992 102.7489996-1.0173169 1.017316-102.7489992-102.7489987zm-4.5270599 4.5270599 102.7489992 102.7489997-1.0173168 1.017316-102.7489992-102.7489989zm-4.5270599 4.5270599 102.7489992 102.7489988-1.0173168 1.017317-102.7489992-102.748999zm13.5811796-13.5811796 102.7489992 102.7489994-1.0173168 1.017317-102.7489992-102.7489996zm4.5270599-4.5270599 102.7489992 102.7489993-1.0173168 1.017317-102.7489992-102.7489995zm4.5270599-4.5270599 102.7489992 102.7489992-1.0173169 1.017317-102.7489992-102.7489993zm4.5270598-4.5270598 102.7489992 102.748999-1.0173168 1.017317-102.7489992-102.7489992zm4.52705989-4.5270599 102.74899921 102.7489989-1.0173168 1.017317-102.74899924-102.7489991zm4.52705986-4.5270599 102.74899925 102.7489988-1.0173169 1.017317-102.74899917-102.7489989zm4.52705987-4.5270598 102.74899938 102.7489996-1.017317 1.017316-102.74899921-102.7489988zm4.52705986-4.5270599 102.74899952 102.7489995-1.017317 1.017317-102.74899934-102.7489997zm4.52705987-4.5270599 102.74899965 102.7489994-1.017317 1.017317-102.74899947-102.7489995zm4.52705985-4.5270598 102.7489988 102.7489992-1.017316 1.017317-102.7489996-102.7489994zm4.5270599-4.5270599 102.7489989 102.7489991-1.017317 1.017317-102.7489987-102.7489993zm4.5270598-4.5270598 102.7489991 102.7489989-1.017317 1.017317-102.7489989-102.7489991zm4.5270599-4.52705992 102.7489992 102.74899882-1.017317 1.017317-102.748999-102.74899899zm4.5270599-4.52705986 102.7489993 102.74899968-1.017317 1.017316-102.7489991-102.74899886zm4.5270598-4.52705987 102.7489995 102.74899955-1.017317 1.017316-102.7489993-102.74899872zm4.5270599-4.52705986 102.7489996 102.74899921-1.017317 1.0173168-102.7489994-102.74899919zm4.5270599-4.52705989 102.7489987 102.7489992-1.017316 1.0173169-102.7489995-102.74899926zm4.5270598-4.5270598 102.7489989 102.7489992-1.017316 1.0173168-102.7489997-102.7489992z" fill="#ff2800" fill-rule="evenodd" mask="url(#a)"/></svg>

<?xml version="1.0" encoding="UTF-8"?>
<svg width="115px" height="169px" viewBox="0 0 115 169" version="1.1" xmlns="http://www.w3.org/2000/svg" xmlns:xlink="http://www.w3.org/1999/xlink">
    <!-- Generator: Sketch 51.3 (57544) - http://www.bohemiancoding.com/sketch -->
    <title>Combined Shape</title>
    <desc>Created with Sketch.</desc>
    <defs>
        <polygon id="path-1" points="-2 112.034483 15.7 94.3448276 45.2 123.827586 45.2 0 68.8 0 68.8 123.827586 98.3 94.3448276 116 112.034483 57 171"></polygon>
    </defs>
    <g id="assets" stroke="none" stroke-width="1" fill="none" fill-rule="evenodd">
        <g id="Combined-Shape" transform="translate(-2.000000, 0.000000)"></g>
        <mask id="mask-2" fill="white">
            <use xlink:href="#path-1"></use>
        </mask>
        <g id="Mask"></g>
        <path d="M-30.9285634,66.9285634 L71.8204358,169.677563 L70.8031189,170.694879 L-31.9458803,67.9458803 L-30.9285634,66.9285634 Z M-35.4556233,71.4556233 L67.2933759,174.204623 L66.2760591,175.221939 L-36.4729401,72.4729401 L-35.4556233,71.4556233 Z M-39.9826832,75.9826832 L62.766316,178.731682 L61.7489992,179.748999 L-41,77 L-39.9826832,75.9826832 Z M-26.4015036,62.4015036 L76.3474956,165.150503 L75.3301788,166.16782 L-27.4188204,63.4188204 L-26.4015036,62.4015036 Z M-21.8744437,57.8744437 L80.8745555,160.623443 L79.8572387,161.64076 L-22.8917605,58.8917605 L-21.8744437,57.8744437 Z M-17.3473838,53.3473838 L85.4016154,156.096383 L84.3842985,157.1137 L-18.3647007,54.3647007 L-17.3473838,53.3473838 Z M-12.820324,48.820324 L89.9286752,151.569323 L88.9113584,152.58664 L-13.8376408,49.8376408 L-12.820324,48.820324 Z M-8.29326411,44.2932641 L94.4557351,147.042263 L93.4384183,148.05958 L-9.31058094,45.3105809 L-8.29326411,44.2932641 Z M-3.76620425,39.7662042 L98.982795,142.515203 L97.9654781,143.53252 L-4.78352107,40.7835211 L-3.76620425,39.7662042 Z M0.760855619,35.2391444 L103.509855,137.988144 L102.492538,139.00546 L-0.256461205,36.2564612 L0.760855619,35.2391444 Z M5.28791548,30.7120845 L108.036915,133.461084 L107.019598,134.478401 L4.27059866,31.7294013 L5.28791548,30.7120845 Z M9.81497535,26.1850246 L112.563975,128.934024 L111.546658,129.951341 L8.79765853,27.2023415 L9.81497535,26.1850246 Z M14.3420352,21.6579648 L117.091034,124.406964 L116.073718,125.424281 L13.3247184,22.6752816 L14.3420352,21.6579648 Z M18.8690951,17.1309049 L121.618094,119.879904 L120.600777,120.897221 L17.8517783,18.1482217 L18.8690951,17.1309049 Z M23.3961549,12.6038451 L126.145154,115.352844 L125.127837,116.370161 L22.3788381,13.6211619 L23.3961549,12.6038451 Z M27.9232148,8.07678518 L130.672214,110.825784 L129.654897,111.843101 L26.905898,9.09410201 L27.9232148,8.07678518 Z M32.4502747,3.54972532 L135.199274,106.298725 L134.181957,107.316041 L31.4329579,4.56704214 L32.4502747,3.54972532 Z M36.9773345,-0.977334547 L139.726334,101.771665 L138.709017,102.788981 L35.9600177,0.0399822764 L36.9773345,-0.977334547 Z M41.5043944,-5.50439441 L144.253394,97.2446048 L143.236077,98.2619216 L40.4870776,-4.48707759 L41.5043944,-5.50439441 Z M46.0314543,-10.0314543 L148.780453,92.7175449 L147.763137,93.7348618 L45.0141375,-9.01413746 L46.0314543,-10.0314543 Z M50.5585141,-14.5585141 L153.307513,88.1904851 L152.290197,89.2078019 L49.5411973,-13.5411973 L50.5585141,-14.5585141 Z" id="Combined-Shape" fill="#FF2800" mask="url(#mask-2)"></path>
    </g>
</svg>
